img/vector/chat.svg

<svg width="42" height="40" viewBox="0 0 42 40" fill="none" xmlns="http://www.w3.org/2000/svg">
<path d="M37.4706 29.6142C38.4845 27.8528 39.0258 25.88 39.0462 23.8714C39.0667 21.8627 38.5656 19.8804 37.5877 18.1006C36.6098 16.3208 35.1853 14.7986 33.4409 13.6695C31.6964 12.5404 29.686 11.8393 27.5885 11.6286C26.9277 10.0946 25.9452 8.70517 24.7012 7.54531C23.4571 6.38545 21.9776 5.47954 20.3533 4.88304C18.7289 4.28653 16.9938 4.01197 15.2542 4.07615C13.5146 4.14033 11.807 4.54191 10.2359 5.2563C8.66488 5.9707 7.26342 6.98289 6.1173 8.23093C4.97119 9.47898 4.10452 10.9366 3.57034 12.5147C3.03615 14.0927 2.84569 15.758 3.01061 17.4086C3.17552 19.0592 3.69234 20.6603 4.52945 22.1141L3.47794 25.6197C3.38141 25.9412 3.37692 26.2815 3.46495 26.6052C3.55298 26.9289 3.73031 27.2243 3.97857 27.4608C4.22684 27.6973 4.53699 27.8662 4.87688 27.9501C5.21678 28.034 5.57404 28.0297 5.91164 27.9379L9.59264 26.9363C11.0813 27.7139 12.7178 28.201 14.4065 28.3691C15.0902 29.9575 16.1184 31.3905 17.4237 32.5743C18.7291 33.7582 20.2822 34.6662 21.9814 35.2389C23.6807 35.8116 25.4878 36.0362 27.2844 35.8979C29.0811 35.7595 30.8268 35.2614 32.4074 34.4362L36.0884 35.4379C36.426 35.5297 36.7833 35.534 37.1231 35.4501C37.463 35.3662 37.7732 35.1973 38.0214 34.9609C38.2697 34.7244 38.4471 34.429 38.5351 34.1053C38.6232 33.7816 38.6188 33.4414 38.5223 33.1199L37.4706 29.6142ZM9.72097 24.9888C9.62949 24.9888 9.53847 25.0009 9.45052 25.0249L5.37091 26.135L6.53649 22.2495C6.5733 22.1267 6.58338 21.998 6.56611 21.8713C6.54883 21.7446 6.50457 21.6226 6.43603 21.5128C5.09102 19.3529 4.62014 16.7997 5.1118 14.3326C5.60347 11.8654 7.02386 9.6541 9.10628 8.11376C11.1887 6.57342 13.7899 5.81003 16.4215 5.96694C19.0531 6.12384 21.534 7.19023 23.3984 8.9659C25.2629 10.7416 26.3826 13.1043 26.5473 15.6106C26.7121 18.1169 25.9105 20.5942 24.2932 22.5775C22.6758 24.5607 20.3539 25.9135 17.7634 26.3817C15.1729 26.85 12.4921 26.4015 10.2242 25.1206C10.072 25.0343 9.8981 24.9888 9.72097 24.9888ZM35.4636 29.7495L36.6293 33.635L32.5495 32.525C32.4206 32.4898 32.2854 32.4802 32.1524 32.4966C32.0194 32.5131 31.8913 32.5552 31.776 32.6205C30.5003 33.3407 29.083 33.8037 27.6118 33.9809C26.1406 34.1582 24.6469 34.0459 23.2231 33.651C21.7993 33.2562 20.4758 32.5871 19.3345 31.6854C18.1932 30.7836 17.2585 29.6683 16.5882 28.4085C18.4293 28.2948 20.2228 27.8031 21.8455 26.9669C23.4682 26.1308 24.8816 24.9701 25.9888 23.5645C27.0959 22.1589 27.8706 20.5418 28.2595 18.8242C28.6484 17.1066 28.6424 15.3291 28.2419 13.6139C29.9541 13.9195 31.5636 14.6138 32.9339 15.638C34.3042 16.6622 35.3949 17.9861 36.1135 19.4973C36.8321 21.0086 37.1574 22.6626 37.0617 24.3191C36.9661 25.9755 36.4523 27.5856 35.564 29.0127C35.4955 29.1225 35.4512 29.2445 35.4339 29.3712C35.4167 29.4979 35.4267 29.6266 35.4636 29.7495Z" fill="white"/>
</svg>

<svg width="42" height="40" fill="none" xmlns="http://www.w3.org/2000/svg"><path d="M37.47 29.614a11.741 11.741 0 0 0 1.576-5.743c.02-2.008-.48-3.99-1.458-5.77a12.412 12.412 0 0 0-4.147-4.431 13.205 13.205 0 0 0-5.853-2.041 12.173 12.173 0 0 0-2.887-4.084 12.887 12.887 0 0 0-4.348-2.662 13.374 13.374 0 0 0-10.117.373 12.754 12.754 0 0 0-4.119 2.975 12.048 12.048 0 0 0-2.547 4.284 11.64 11.64 0 0 0-.56 4.894 11.77 11.77 0 0 0 1.52 4.705L3.477 25.62a1.789 1.789 0 0 0-.013.985c.088.324.265.62.514.856.248.236.558.405.898.49.34.083.697.079 1.035-.013l3.68-1.002a13.233 13.233 0 0 0 4.814 1.433 12.19 12.19 0 0 0 3.018 4.205 12.926 12.926 0 0 0 4.557 2.665 13.4 13.4 0 0 0 5.303.659 13.28 13.28 0 0 0 5.123-1.462l3.681 1.002c.338.092.695.096 1.035.012.34-.084.65-.253.898-.49.249-.236.426-.531.514-.855a1.788 1.788 0 0 0-.013-.985l-1.051-3.506ZM9.722 24.99c-.092 0-.183.012-.27.036l-4.08 1.11 1.165-3.886a.895.895 0 0 0-.1-.736 9.893 9.893 0 0 1-1.324-7.18c.491-2.468 1.912-4.679 3.994-6.22 2.083-1.54 4.684-2.303 7.316-2.146 2.631.157 5.112 1.223 6.976 2.999 1.865 1.776 2.985 4.138 3.15 6.645.164 2.506-.637 4.983-2.255 6.966-1.617 1.984-3.94 3.336-6.53 3.805-2.59.468-5.27.02-7.539-1.261a1.021 1.021 0 0 0-.503-.132Zm25.743 4.76 1.165 3.886-4.08-1.11a1.03 1.03 0 0 0-.773.096 11.197 11.197 0 0 1-4.164 1.36 11.353 11.353 0 0 1-4.389-.33 11.023 11.023 0 0 1-3.889-1.966 10.422 10.422 0 0 1-2.746-3.276 13.27 13.27 0 0 0 5.258-1.442 12.63 12.63 0 0 0 4.143-3.402 11.915 11.915 0 0 0 2.27-4.74 11.611 11.611 0 0 0-.017-5.211c1.712.305 3.322 1 4.692 2.024a10.408 10.408 0 0 1 3.18 3.86 9.888 9.888 0 0 1 .948 4.821 9.963 9.963 0 0 1-1.498 4.694.91.91 0 0 0-.1.736Z" fill="#fff"/></svg>
